X:1
T:Beautiful Vale of Rest
T:Beautiful Vale of Rest
T:William Howard Doane
T:Frances Jane (Fanny) Crosby, 1868
T:Public Domain Courtesy of the Cyber Hymnal™
T:Public Domain Courtesy of the Cyber Hymnal™
C:William Howard Doane
Z:Public Domain
Z:Courtesy of the Cyber Hymnal™
%%score ( 1 2 ) ( 3 4 )
L:1/8
Q:1/4=110
M:6/8
K:C
V:1 treble 
V:2 treble 
V:3 bass 
V:4 bass 
V:1
 [EG] | [EG]2 [^D^F] [EG]2 [EG] | [FA]2 [GB] [Ac]3 | [FB][FA][FG] (BA)[FG] | [E-c]3 [EG]2 [EG] | %5
w: 1.~My|soul with rap- ture|waits for thee,|Beau- ti- ful vale * of|rest; * My|
w: 2.~Thy|ra- diant fields and|glow- ing skies,|Beau- ti- ful vale * of|rest; * Too|
w: 3.~The|joys of earth, how|soon they fade!|Beau- ti- ful vale * of|rest; * Like|
w: 4.~O!|who would dwell for-|ev- er here,|Beau- ti- ful vale * of|rest; * With|
 [EG]2 [^D^F] [EG]2 [EG] | [FA]2 [GB] [Ac]3 | [FB][FA][FG] (BA)[FG] | [Ec]3- [Ec]2 [Ec] | %9
w: home be- yond the|roll- ing sea,|Beau- ti- ful vale * of|rest; * I|
w: pure and bright for|mor- tal eyes,|Beau- ti- ful vale * of|rest; * Be-|
w: morn- ing dew or|even- ing shade,|Beau- ti- ful vale * of|rest; * Yet,|
w: joy, un- fad- ing|joy so near,|Beau- ti- ful vale * of|rest; * O!|
 [Fd]2 [Ec] [Fd]2 [Ec] | ([Fd][Ge])[Fd] !fermata![Ec]2 [Gc] | [Ac]2 [Bd] [Ac]2 [FA] | %12
w: long to sing thy|plea- * sures o’er, The|glo- ries of thy|
w: side the liv- ing|stream * that flows, The|wea- ry heart shall|
w: when we reach thy|gold- * en strand, Our|gen- tle Sav- ior’s|
w: may I live that|I * may wear A|star- ry crown for-|
 [EG]2 [CE] !fermata![EG]2 [EG] | [EG]2 [^D^F] [EG]2 [EG] | [FA]2 [GB] [Ac]3 | %15
w: tran- quil shore, Where|pain and sor- row|come no more—|
w: find re- pose— Thy|pearl- y gates shall|nev- er close,|
w: prom- ised land, We’ll|sing with all the|an- gel band,|
w: ev- er there, And|breathe thy sweet and|balm- y air,|
 [EG]2 [Ec] (BA)[FB] | [Ec]3- [Ec]3 ||"^Refrain" [Ac][Ac][Ac] ([Ac][GB])[FA] | ([E-G]3 [CE]3) | %19
w: Hap- py vale * of|rest. *|||
w: Hap- py vale * of|rest. *|Beau- ti- ful vale * of|rest, *|
w: Hap- py vale * of|rest. *|||
w: Hap- py vale * of|rest. *|||
 [GB][GB][GB] (BA)[FB] | [Ec]3- [Ec]2 [GB] | [FA]2 [GB] (dc)[FA] | [EG]2 [CE] !fermata![FA]2 [Ec] | %23
w: ||||
w: Beau- ti- ful vale * of|rest, * My|soul with rap- * ture|longs for thee, O!|
w: ||||
w: ||||
 [GB]2 [GB] ([GB][FA])[FB] | [Ec]3- [Ec]3 |] %25
w: ||
w: love- ly vale * of|rest. *|
w: ||
w: ||
V:2
 x | x6 | x6 | x3 F2 x | x6 | x6 | x6 | x3 F2 x | x6 | x6 | x6 | x6 | x6 | x6 | x6 | x3 F2 x | %16
 x6 || x6 | x6 | x3 F2 x | x6 | x3 F2 x | x6 | x6 | x6 |] %25
V:3
 [C,C] | [C,C]2 [C,C] [C,C]2 [C,C] | [F,C]2 [F,C] [F,C]3 | [G,D][G,C][G,B,] (DC)[G,B,] | %4
 [C,-G,]3 [C,C]2 [C,C] | [C,C]2 [C,C] [C,C]2 [C,C] | [F,C]2 [F,C] [F,C]3 | %7
 [G,D][G,C][G,B,] [G,D]2 [G,D] | [C,C]3- [C,C]2 [C,C] | [G,B,]2 [G,C] [G,B,]2 [G,C] | %10
 (B,C)[G,B,] !fermata![C,C]2 [E,C] | [F,C]2 [F,C] [F,C]2 [F,C] | %12
 [C,C]2 [C,G,] !fermata![C,C]2 [C,C] | [C,C]2 [C,C] [C,C]2 [C,C] | [F,C]2 [F,C] [F,C]3 | %15
 [G,C]2 [G,C] [G,,D]2 [G,,D] | [C,C]3- [C,C]3 || [F,C][F,CF][F,CF] [F,CF]2 [F,C] | %18
 [C,-C]3 [C,G,]3 | [G,D][G,D][G,D] [G,D]2 [G,D] | [C,C]3- [C,C]2 [C,C] | [F,C]2 [F,C] (A,C)[F,C] | %22
 [C,C]2 [C,G,] !fermata![C,C]2 [C,G,] | [G,D]2 [G,D] D2 [G,,D] | [C,C]3- [C,C]3 |] %25
V:4
 x | x6 | x6 | x3 G,2 x | x6 | x6 | x6 | x6 | x6 | x6 | G,2 x4 | x6 | x6 | x6 | x6 | x6 | x6 || %17
 x6 | x6 | x6 | x6 | x3 F,2 x | x6 | x3 (G,,G,,) x | x6 |] %25

